X: 2794
T: Banshee, The
R: reel
M: 4/4
K: Gmajor
~G3D EDBD|GFGB d2 (3Bcd|eged BAGA|BAGE EDBA|
FG2D EDBD|GFGB d2 (3Bcd|eged BAGA|BAGE ED~D2|
FG~G2 ~G2BD|GFGB d2 (3Bcd|e3d BAGA|BdAG AGED|
G3D EDBD|GFGB d2 (3Bcd|deed BAGA|BAGE GABd||
eaz g egge|dBBA ~B3d|eBde Bdef|fged ~e3f|
eaag egge|dBBA B3d|eged BAGA|BAGE GABd|
eaz g egge|dBBA ~B3d|eB~B2 g3f|eBBA ~B3z|
eaag egge|dBBA ~B3d|eged BAGA|BAGE EDBA||

